X: 1
T: the Braes of Mar
O: Cape Breton version
R: strathspey
Z: 2014 John Chambers <jc:trillian.mit.edu>
B: BSFC Session Tune Book 2016 p.41
B: San Francisco Fiddle Club
B: Concord Slow Scottish Session collection
N: "One Long Strathspey" at top of page
N: "Lessons Materials Arranged by Barbara McOwen, November 2000"
M: C
L: 1/8
K: D
"A"[|] A |\
"D"F<A A>B "D7"d>e f>e | "G"d<B B>A "A7"B<d B>A |\
"D"F<A A>B "Bm"d>e f>d | "G"e<g "D"f<a "A7"e2 "D"d :|
"B"|: z |\
"D"f<a a>g "D7"f<d a>f | "G"g<b b>a "A7"g<e b>g |\
"D"f<a a>g "Bm"f>d a>f | "G"g<b "D"f<a "A7"e2 "D"d :|
"C"|: z |\
"Em"e<e e>f g>f e>d | "G"B<B B>A B<d "A7"B>A |\
"D"F<A A>B "Bm"d>e f>d | "G"e<g "D"f<a "A7"e2 "D"d :|
"D"[|] z |\
"D"F<A A>F D>F A>F | "G"G<B B>G D>G B>G |\
"D"F<A A>F "Bm"D>F A>F | "G"G<B "D"F<A "A7"E2 "D"D2 ||
y2 |\
"D"F<A A>F D>F A>F | "Em"E<E E>F "A7"G>F E>D |\
"D"F<A A>B "Bm"d>e f>g | "G"a>b "D"a<f "A7"e2 "D"d |]


